!!!!SEGMENT: pl-sa--552-a-ix-32--032_anonim--valc.krn
!!!cenid: 18xx:543
!!!COM: Anonim
!!!COM-rismID: pe30004985
!!!CDT:
!!!CNT:
!!!OTL: Valc
!!!PDT:
!!!AGN: Secular; Waltz
!!!SMS-siglum: PL-SA
!!!SMS-shelfmark: 552/A IX 32
!!!SMS-shelfwork: 032 W
!!!SMS-variant:
!!!SMS-altvar:
!!!NIFC-rismSourceID: 1001069574
!!!NIFC-rismChildID: 1001069574
!!!NIFC-islandoraID: none
!!!URL-pdf-islandora:
!!!URL-scan: https://bc.bdsandomierz.pl/dlibra/publication/1308/edition/1276/content @EN{Scan in the Sandomierz Diocese Digital Library} @PL{Skany w portalu Cyfrowa Biblioteka Diecezjalna w Sandomierzu}
!!!IIIF:
!!!ONB-nifc: Str. 16, s. 5-6
!!!AIN: 2 piano
!!!key:
**kern	**kern
*part2	*part1
*staff2	*staff1
*Ipiano	*Ipiano
*I"Piano	*I"Piano
*clefF4	*clefG2
*k[f#]	*k[f#]
*G:	*G:
*M3/8	*M3/8
*>[A,A,B,B]	*>[A,A,B,B]
*>A	*>A
!LO:TX:a:t=P:problem=omyłkowo wpisany klucz F3	!LO:TX:a:t=Valc
8r	16dd\LL
.	16cc\JJ
=1	=1
!LO:TX:a:t=P:problem=mixed beam	!
8GL 8GG/	16b\LL
.	16cc\
8B 8G\	16dd\
.	16gg\
8BJ 8G\	16ff#\
.	16ee\JJ
=2	=2
*rep	*
!LO:TX:a:t=P:problem=mixed beam	!
8GL 8GG/	16ee/LL
.	16dd/
8B 8G\	16b/
.	16d/
8BJ 8G\	16g/
.	16b/JJ
*Xrep	*
=3	=3
8D\L	16dd/LL
.	16cc/
8c 8A\	16a/
.	16d/
8cJ 8A\	16g/
.	16b/JJ
!!LO:LB:g=original
=4	=4
!LO:TX:a:t=P:problem=mixed beam	!
8GL 8GG/	16ee/LL
.	16dd/
8B 8G\	16b/
.	16d/
8BJ 8G\	16g/
.	16b/JJ
=5	=5
*rep	*
!LO:TX:a:t=P:problem=mixed beam	!
8GL 8GG/	16b\LL
.	16cc\
8B 8G\	16dd\
.	16gg\
8BJ 8G\	16ff#\
.	16ee\JJ
*Xrep	*
=6	=6
*rep	*
!LO:TX:a:t=P:problem=mixed beam	!
8GL 8GG/	16ee/LL
.	16dd/
8B 8G\	16b/
.	16d/
8BJ 8G\	16g/
.	16b/JJ
*Xrep	*
=7	=7
8D\L	16dd/LL
.	16cc/
8c 8A\	16a/
.	16d/
8cJ 8A\	16f#/
.	16a/JJ
=8	=8
4B 4G\	4g/
=:|!|:	=:|!|:
*>B	*>B
8r	8gg\
=9	=9
8D\L	16gg\LL
.	16ff#X\
8c 8A\	16ff#\
.	16a\
8cJ 8A\	16dd\
.	16ff#\JJ
=10	=10
8D\L	16ff#X\LL
!	!LO:SIC:v:s=16gg
.	16gg-\
!	!LO:SIC:v:s=16gg
8B 8G\	16gg-\
.	16b\
8BJ 8G\	16dd\
!	!LO:SIC:v:s=16gg
.	16gg-\JJ
=11	=11
8D\L	16gg\LL
.	16ff#X\
8c 8A\	16ff#\
.	16a\
8cJ 8A\	16dd\
!	!LO:TX:a:t=g
.	16ff#\JJ
=12	=12
!	!LO:TX:a:t=f
8D\L	16ff#\LL
!	!LO:SIC:v:s=16gg
!	!LO:TX:a:t=ed
.	16gg-\
!	!LO:SIC:v:s=16gg
!	!LO:TX:a:t=ed
8B 8G\	16gg-\
.	16b\
8BJ 8G\	16dd\
!	!LO:SIC:v:s=16gg
.	16gg-\JJ
=13	=13
8D\L	16gg\LL
.	16ff#\
8c 8A\	16ff#\
.	16a\
8cJ 8A\	16dd\
.	16ff#\JJ
=14	=14
8D\L	16ff#\LL
!	!LO:SIC:v:s=16gg
.	16gg-\
!	!LO:SIC:v:s=16gg
8B 8G\	16gg-\
.	16b\
8BJ 8G\	16dd\
!	!LO:SIC:v:s=16gg
.	16gg-\JJ
=15	=15
8D\L	16gg\LL
.	16ff#\
8c 8A\	16ff#\
.	16b\
8cJ 8A\	16dd\
.	16gg\JJ
=16	=16
4B 4G\	4gg\
8ryy	8ryy
==:|!|:;;	==:|!|:;;
*-	*-
!!!system-decoration: {s1,s2}
!!!ENC: Marta Lawrence
!!!END: 2020-12-13
!!!ENC: Berenika Jozajtis
!!!END: 2020-06-18
!!!YEC: Copyright 2022 Narodowy Instytut Fryderyka Chopina (https://polishscores.org)
!!!YEM: License CC-BY-4.0 (https://creativecommons.org/licenses/by/4.0)
